exported-svg/x-circle.svg

<svg height="24" viewBox="0 0 24 24" width="24" xmlns="http://www.w3.org/2000/svg"><path d="m12.5 23c-5.79898987 0-10.5-4.7010101-10.5-10.5 0-5.79898987 4.70101013-10.5 10.5-10.5 5.7989899 0 10.5 4.70101013 10.5 10.5 0 5.7989899-4.7010101 10.5-10.5 10.5zm0-1c5.2467051 0 9.5-4.2532949 9.5-9.5 0-5.24670512-4.2532949-9.5-9.5-9.5-5.24670512 0-9.5 4.25329488-9.5 9.5 0 5.2467051 4.25329488 9.5 9.5 9.5zm.7071068-9.5 2.6464466 2.6464466c.1952621.1952622.1952621.5118446 0 .7071068-.1952622.1952621-.5118446.1952621-.7071068 0l-2.6464466-2.6464466-2.64644661 2.6464466c-.19526215.1952621-.51184463.1952621-.70710678 0-.19526215-.1952622-.19526215-.5118446 0-.7071068l2.64644659-2.6464466-2.64644659-2.64644661c-.19526215-.19526215-.19526215-.51184463 0-.70710678s.51184463-.19526215.70710678 0l2.64644661 2.64644659 2.6464466-2.64644659c.1952622-.19526215.5118446-.19526215.7071068 0 .1952621.19526215.1952621.51184463 0 .70710678z"/></svg>

<?xml version="1.0" encoding="UTF-8"?>
<svg width="24px" height="24px" viewBox="0 0 24 24" version="1.1" xmlns="http://www.w3.org/2000/svg" xmlns:xlink="http://www.w3.org/1999/xlink">
    <!-- Generator: Sketch 55.2 (78181) - https://sketchapp.com -->
    <title>x-circle</title>
    <desc>Created with Sketch.</desc>
    <g id="x-circle" stroke="none" stroke-width="1" fill="none" fill-rule="evenodd">
        <path d="M12.5,23 C18.2989899,23 23,18.2989899 23,12.5 C23,6.70101013 18.2989899,2 12.5,2 C6.70101013,2 2,6.70101013 2,12.5 C2,18.2989899 6.70101013,23 12.5,23 Z M12.5,22 C7.25329488,22 3,17.7467051 3,12.5 C3,7.25329488 7.25329488,3 12.5,3 C17.7467051,3 22,7.25329488 22,12.5 C22,17.7467051 17.7467051,22 12.5,22 Z" id="Oval" fill="#000000" fill-rule="nonzero"></path>
        <path d="M13.2071068,12.5 L15.8535534,15.1464466 C16.0488155,15.3417088 16.0488155,15.6582912 15.8535534,15.8535534 C15.6582912,16.0488155 15.3417088,16.0488155 15.1464466,15.8535534 L12.5,13.2071068 L9.85355339,15.8535534 C9.65829124,16.0488155 9.34170876,16.0488155 9.14644661,15.8535534 C8.95118446,15.6582912 8.95118446,15.3417088 9.14644661,15.1464466 L11.7928932,12.5 L9.14644661,9.85355339 C8.95118446,9.65829124 8.95118446,9.34170876 9.14644661,9.14644661 C9.34170876,8.95118446 9.65829124,8.95118446 9.85355339,9.14644661 L12.5,11.7928932 L15.1464466,9.14644661 C15.3417088,8.95118446 15.6582912,8.95118446 15.8535534,9.14644661 C16.0488155,9.34170876 16.0488155,9.65829124 15.8535534,9.85355339 L13.2071068,12.5 Z" id="Combined-Shape" fill="#000000" fill-rule="nonzero"></path>
    </g>
</svg>
